images/marker-npc-group.svg

<svg xmlns="http://www.w3.org/2000/svg" viewBox="0 0 57.8 57.8" enable-background="new 0 0 57.8 57.8"><style type="text/css">.st0{fill:#6F4512;} .st1{fill:#CE8508;}</style><title>npc-group</title><circle class="st0" cx="28.9" cy="28.9" r="28.9"/><path class="st1" d="M10.606 33.113c-.659.48-1.739.181-3.059-1.2.3 6.3 4.678 13.556 6.118 16.074 2.81.677 5.522 1.707 8.074 3.064.745 1.389 1.336 2.856 1.761 4.374h10.8c.425-1.518 1.016-2.985 1.763-4.373 2.551-1.358 5.264-2.387 8.074-3.064 1.439-2.519 5.817-9.777 6.118-16.074-1.319 1.379-2.4 1.679-3.059 1.2-1.261-1.8-2.755-3.426-4.443-4.834.063-1.58 3.547-18.08 3.547-18.08-8.041-10.253-27.025-10.614-34.792 0 0 0 3.479 16.494 3.544 18.077-1.689 1.408-3.184 3.034-4.446 4.836zm36.32 2.249c.236 5.638-7.02 8.846-8.52 8.846-1.999-.216-3.93-.849-5.668-1.859-.963-1.117-1.605-2.475-1.859-3.928 3.148.061 13.134-3.058 16.047-3.059zm-18.037 7.664c1.679 0 4.109 4.1 4.529 5.221-.223.805-.667 1.532-1.28 2.1h-6.518c-.613-.568-1.057-1.295-1.28-2.1.421-1.119 2.87-5.221 4.549-5.221zm-3.91-.676c-1.738 1.01-3.669 1.643-5.668 1.859-1.5 0-8.758-3.208-8.52-8.846 2.912 0 12.9 3.119 16.047 3.059-.253 1.453-.895 2.811-1.859 3.928z"/></svg>

<?xml version="1.0" encoding="utf-8"?>
<!-- Generator: Adobe Illustrator 21.0.1, SVG Export Plug-In . SVG Version: 6.00 Build 0)  -->
<svg version="1.1" id="Layer_1" xmlns="http://www.w3.org/2000/svg" xmlns:xlink="http://www.w3.org/1999/xlink" x="0px" y="0px"
	 viewBox="0 0 57.8 57.8" style="enable-background:new 0 0 57.8 57.8;" xml:space="preserve">
<style type="text/css">
	.st0{fill:#6F4512;}
	.st1{fill:#CE8508;}
</style>
<title>npc-group</title>
<circle class="st0" cx="28.9" cy="28.9" r="28.9"/>
<path class="st1" d="M10.606,33.113c-0.659,0.48-1.739,0.181-3.059-1.2c0.3,6.3,4.678,13.556,6.118,16.074
	c2.81,0.677,5.522,1.707,8.074,3.064c0.745,1.389,1.336,2.856,1.761,4.374h10.8c0.425-1.518,1.016-2.985,1.763-4.373
	c2.551-1.358,5.264-2.387,8.074-3.064c1.439-2.519,5.817-9.777,6.118-16.074c-1.319,1.379-2.4,1.679-3.059,1.2
	c-1.261-1.8-2.755-3.426-4.443-4.834C42.816,26.7,46.3,10.2,46.3,10.2c-8.041-10.253-27.025-10.614-34.792,0
	c0,0,3.479,16.494,3.544,18.077C13.363,29.685,11.868,31.311,10.606,33.113z M46.926,35.362c0.236,5.638-7.02,8.846-8.52,8.846
	c-1.999-0.216-3.93-0.849-5.668-1.859c-0.963-1.117-1.605-2.475-1.859-3.928C34.027,38.482,44.013,35.363,46.926,35.362
	L46.926,35.362z M28.889,43.026c1.679,0,4.109,4.1,4.529,5.221c-0.223,0.805-0.667,1.532-1.28,2.1H25.62
	c-0.613-0.568-1.057-1.295-1.28-2.1C24.761,47.128,27.21,43.026,28.889,43.026z M24.979,42.35c-1.738,1.01-3.669,1.643-5.668,1.859
	c-1.5,0-8.758-3.208-8.52-8.846c2.912,0,12.9,3.119,16.047,3.059C26.585,39.875,25.943,41.233,24.979,42.35z"/>
</svg>
